X: 821
T: Alasdair's Tune
R: reel
M: 4/4
K: Dmajor
d3G G2FD-|D4- DD E<F|d3G GG2B/G/|AD2C- CD E<F|
d3G G2FD-|D4- DA, B,<D|E8-|E4- EE A<c|
d3d- d3d|e2fd- d3d|e3f d2f<d|e3e/d/ B2e<c|
d3G G2FD-|D4- DA, B,<D|E8-|E4 E2-E>F|
D8-|DA, B,D FE2D/B,/|E8-|E2-E>E A2-A>B|
D8-|DA, B,D FE2D/B,/|E8-|E4- E z z2||

